wasmegg/rockets-tracker/src/badges/badge-20.svg

<svg xmlns="http://www.w3.org/2000/svg" xml:space="preserve" style="fill-rule:evenodd;clip-rule:evenodd;stroke-linejoin:round;stroke-miterlimit:2" viewBox="0 0 64 64"><path d="M.291-.037a.5.5 0 0 0-.176.001l-.019.001q.033-.067.073-.13A.8.8 0 0 0 .244-.33q.025-.075.04-.153A.5.5 0 0 0 .288-.64C.281-.689.256-.74.209-.762A.13.13 0 0 0 .128-.77a.12.12 0 0 0-.094.093l-.008.052c-.002.013.003.026.017.03.011.003.028-.004.03-.017q.003-.033.012-.065l.002-.005.002-.004.004-.006.002-.004.011-.011.004-.002.009-.005.008-.004.004-.002.017-.004h.019l.005.001.008.002.006.002.012.007.003.002.013.013.002.003.009.014.003.007.001.001.001.003.009.033.002.008.001.006.001.016-.002.075-.001.014-.001.007-.002.01-.014.067-.025.085-.015.042-.007.019-.002.005-.001.003-.005.01-.041.077-.047.081-.042.085a.03.03 0 0 0-.002.019.02.02 0 0 0 .017.017C.09.017.128.011.166.008L.224.006l.028.002.015.001.008.001h.003q.01.002.019-.003a.03.03 0 0 0 .011-.014C.311-.019.304-.035.291-.037" style="fill:#fff;fill-rule:nonzero" transform="matrix(56 0 0 56 12.17 53.28)"/><path d="M.345-.503.336-.6Q.334-.626.329-.65a.2.2 0 0 0-.018-.044.1.1 0 0 0-.026-.037.2.2 0 0 0-.039-.023.2.2 0 0 0-.081-.006c-.046.01-.078.053-.097.093a.5.5 0 0 0-.033.1.3.3 0 0 0-.005.131l.003.007q0 .075.003.149c.002.052.003.105.017.156a.18.18 0 0 0 .077.11.13.13 0 0 0 .072.019.1.1 0 0 0 .061-.026.2.2 0 0 0 .033-.054.3.3 0 0 0 .017-.054q.02-.09.031-.181.009-.097.001-.193m-.046.125-.002.049-.002.022-.002.012v.006l-.001.004q-.007.047-.016.092l-.015.069-.009.027-.002.006-.001.002-.006.013-.007.011-.001.001-.004.005-.004.004-.003.003-.009.005H.214l-.006.002-.002.001H.187L.173-.048.166-.051.163-.052.149-.06.144-.063.141-.066.13-.077.128-.08.124-.085.116-.098.109-.112.108-.114.105-.122l-.008-.03-.003-.015-.002-.008v-.004Q.087-.219.086-.258a4 4 0 0 1-.005-.218.03.03 0 0 0-.006-.017l.002-.024.001-.009.001-.005.003-.02.008-.034.009-.027.005-.014.002-.006.002-.005.015-.028.008-.013.003-.004.005-.005.01-.01L.152-.7l.005-.004.009-.005.005-.002.008-.002h.03l.001.001h.003l.009.002.008.003.004.001h.001l.012.008.005.004.005.006.002.002.003.004.005.009.005.009.002.005.002.004.006.018.002.01.001.003v.005l.005.048q.01.097.009.193" style="fill:#fff;fill-rule:nonzero" transform="matrix(56 0 0 56 30.874 53.28)"/></svg>

<?xml version="1.0" encoding="UTF-8" standalone="no"?>
<!DOCTYPE svg PUBLIC "-//W3C//DTD SVG 1.1//EN" "http://www.w3.org/Graphics/SVG/1.1/DTD/svg11.dtd">
<svg width="100%" height="100%" viewBox="0 0 64 64" version="1.1" xmlns="http://www.w3.org/2000/svg" xmlns:xlink="http://www.w3.org/1999/xlink" xml:space="preserve" xmlns:serif="http://www.serif.com/" style="fill-rule:evenodd;clip-rule:evenodd;stroke-linejoin:round;stroke-miterlimit:2;">
    <g transform="matrix(1,0,0,1,-18.636,22.2681)">
        <g transform="matrix(56,0,0,56,30.8061,31.0123)">
            <path d="M0.291,-0.037C0.251,-0.043 0.211,-0.045 0.171,-0.042C0.153,-0.04 0.134,-0.038 0.115,-0.036C0.109,-0.036 0.103,-0.035 0.096,-0.035C0.118,-0.08 0.142,-0.123 0.169,-0.165C0.201,-0.216 0.225,-0.273 0.244,-0.33C0.26,-0.38 0.275,-0.431 0.284,-0.483C0.293,-0.535 0.296,-0.587 0.288,-0.64C0.281,-0.689 0.256,-0.74 0.209,-0.762C0.183,-0.774 0.155,-0.776 0.128,-0.77C0.102,-0.764 0.075,-0.749 0.059,-0.728C0.047,-0.713 0.039,-0.696 0.034,-0.677C0.03,-0.66 0.028,-0.642 0.026,-0.625C0.024,-0.612 0.029,-0.599 0.043,-0.595C0.054,-0.592 0.071,-0.599 0.073,-0.612C0.076,-0.634 0.078,-0.656 0.085,-0.677C0.086,-0.678 0.087,-0.681 0.087,-0.682C0.088,-0.683 0.089,-0.685 0.089,-0.686C0.09,-0.688 0.092,-0.69 0.093,-0.692C0.094,-0.694 0.094,-0.695 0.095,-0.696L0.106,-0.707C0.107,-0.707 0.108,-0.708 0.11,-0.709C0.113,-0.711 0.116,-0.713 0.119,-0.714C0.121,-0.716 0.124,-0.717 0.127,-0.718C0.128,-0.719 0.13,-0.719 0.131,-0.72C0.137,-0.722 0.142,-0.723 0.148,-0.724L0.152,-0.724C0.155,-0.725 0.158,-0.725 0.16,-0.724L0.167,-0.724C0.169,-0.724 0.171,-0.723 0.172,-0.723C0.175,-0.723 0.178,-0.722 0.18,-0.721C0.181,-0.721 0.185,-0.719 0.186,-0.719C0.19,-0.717 0.194,-0.714 0.198,-0.712C0.199,-0.711 0.2,-0.711 0.201,-0.71L0.214,-0.697C0.215,-0.696 0.216,-0.695 0.216,-0.694C0.22,-0.689 0.222,-0.685 0.225,-0.68C0.226,-0.678 0.227,-0.675 0.228,-0.673C0.229,-0.673 0.229,-0.672 0.229,-0.672C0.229,-0.671 0.23,-0.67 0.23,-0.669C0.234,-0.658 0.237,-0.647 0.239,-0.636C0.24,-0.633 0.24,-0.631 0.241,-0.628C0.241,-0.627 0.242,-0.623 0.242,-0.622C0.242,-0.616 0.243,-0.611 0.243,-0.606C0.244,-0.593 0.244,-0.581 0.244,-0.568C0.244,-0.556 0.243,-0.544 0.241,-0.531C0.241,-0.526 0.24,-0.522 0.24,-0.517C0.24,-0.515 0.239,-0.511 0.239,-0.51C0.238,-0.507 0.238,-0.504 0.237,-0.5C0.233,-0.478 0.228,-0.456 0.223,-0.433C0.215,-0.405 0.207,-0.376 0.198,-0.348C0.194,-0.334 0.189,-0.32 0.183,-0.306C0.181,-0.3 0.178,-0.293 0.176,-0.287C0.175,-0.285 0.174,-0.283 0.174,-0.282C0.173,-0.281 0.173,-0.28 0.173,-0.279C0.171,-0.276 0.17,-0.273 0.168,-0.269C0.157,-0.243 0.143,-0.216 0.127,-0.192C0.111,-0.165 0.095,-0.139 0.08,-0.111C0.065,-0.083 0.051,-0.055 0.038,-0.026C0.035,-0.02 0.034,-0.014 0.036,-0.007C0.038,0.001 0.044,0.008 0.053,0.01C0.09,0.017 0.128,0.011 0.166,0.008C0.185,0.006 0.205,0.006 0.224,0.006C0.233,0.007 0.243,0.007 0.252,0.008C0.257,0.008 0.262,0.008 0.267,0.009C0.27,0.009 0.272,0.009 0.275,0.01L0.278,0.01C0.285,0.011 0.291,0.011 0.297,0.007C0.302,0.004 0.306,-0.001 0.308,-0.007C0.311,-0.019 0.304,-0.035 0.291,-0.037Z" style="fill:white;fill-rule:nonzero;"/>
        </g>
        <g transform="matrix(56,0,0,56,49.5101,31.0123)">
            <path d="M0.345,-0.503C0.342,-0.536 0.339,-0.568 0.336,-0.6C0.334,-0.617 0.333,-0.634 0.329,-0.65C0.325,-0.665 0.318,-0.68 0.311,-0.694C0.304,-0.708 0.296,-0.72 0.285,-0.731C0.273,-0.741 0.26,-0.748 0.246,-0.754C0.233,-0.759 0.219,-0.761 0.205,-0.762C0.191,-0.763 0.178,-0.762 0.165,-0.76C0.119,-0.75 0.087,-0.707 0.068,-0.667C0.053,-0.635 0.042,-0.601 0.035,-0.567C0.027,-0.524 0.021,-0.479 0.03,-0.436C0.03,-0.433 0.031,-0.431 0.033,-0.429C0.033,-0.379 0.034,-0.329 0.036,-0.28C0.038,-0.228 0.039,-0.175 0.053,-0.124C0.065,-0.08 0.09,-0.038 0.13,-0.014C0.151,-0.001 0.177,0.006 0.202,0.005C0.225,0.004 0.246,-0.005 0.263,-0.021C0.278,-0.036 0.288,-0.056 0.296,-0.075C0.304,-0.093 0.309,-0.111 0.313,-0.129C0.326,-0.189 0.338,-0.249 0.344,-0.31C0.351,-0.375 0.349,-0.439 0.345,-0.503ZM0.299,-0.378C0.299,-0.362 0.298,-0.346 0.297,-0.329C0.296,-0.322 0.296,-0.314 0.295,-0.307C0.294,-0.303 0.294,-0.299 0.293,-0.295L0.293,-0.289C0.293,-0.289 0.292,-0.286 0.292,-0.285C0.288,-0.254 0.282,-0.223 0.276,-0.193C0.271,-0.17 0.267,-0.147 0.261,-0.124C0.259,-0.115 0.256,-0.106 0.252,-0.097C0.252,-0.095 0.251,-0.093 0.25,-0.091C0.25,-0.09 0.25,-0.09 0.249,-0.089C0.247,-0.085 0.245,-0.08 0.243,-0.076C0.241,-0.072 0.239,-0.069 0.236,-0.065L0.235,-0.064C0.234,-0.062 0.232,-0.06 0.231,-0.059L0.227,-0.055C0.226,-0.054 0.224,-0.053 0.224,-0.052C0.221,-0.05 0.218,-0.049 0.215,-0.047L0.214,-0.047C0.212,-0.046 0.21,-0.045 0.208,-0.045C0.207,-0.045 0.207,-0.045 0.206,-0.044L0.187,-0.044C0.183,-0.045 0.178,-0.047 0.173,-0.048C0.171,-0.049 0.168,-0.05 0.166,-0.051C0.165,-0.051 0.164,-0.052 0.163,-0.052C0.158,-0.054 0.153,-0.057 0.149,-0.06C0.148,-0.061 0.145,-0.063 0.144,-0.063L0.141,-0.066C0.137,-0.07 0.133,-0.073 0.13,-0.077C0.129,-0.078 0.128,-0.079 0.128,-0.08C0.127,-0.08 0.125,-0.084 0.124,-0.085C0.121,-0.089 0.118,-0.094 0.116,-0.098C0.113,-0.103 0.111,-0.107 0.109,-0.112C0.109,-0.113 0.108,-0.113 0.108,-0.114C0.107,-0.116 0.106,-0.119 0.105,-0.122C0.102,-0.132 0.099,-0.142 0.097,-0.152L0.094,-0.167C0.093,-0.17 0.093,-0.172 0.092,-0.175L0.092,-0.179C0.088,-0.205 0.087,-0.232 0.086,-0.258C0.082,-0.331 0.081,-0.403 0.081,-0.476C0.081,-0.483 0.079,-0.488 0.075,-0.493C0.075,-0.501 0.076,-0.509 0.077,-0.517C0.077,-0.52 0.077,-0.523 0.078,-0.526C0.078,-0.528 0.078,-0.529 0.079,-0.531C0.08,-0.537 0.081,-0.544 0.082,-0.551C0.084,-0.562 0.087,-0.574 0.09,-0.585C0.093,-0.594 0.095,-0.603 0.099,-0.612C0.1,-0.617 0.102,-0.622 0.104,-0.626C0.104,-0.628 0.105,-0.63 0.106,-0.632C0.107,-0.634 0.107,-0.635 0.108,-0.637C0.112,-0.646 0.117,-0.656 0.123,-0.665C0.126,-0.67 0.128,-0.674 0.131,-0.678C0.132,-0.679 0.133,-0.681 0.134,-0.682L0.139,-0.687C0.142,-0.691 0.145,-0.694 0.149,-0.697L0.152,-0.7C0.151,-0.7 0.156,-0.703 0.157,-0.704C0.16,-0.706 0.163,-0.707 0.166,-0.709C0.167,-0.709 0.17,-0.71 0.171,-0.711C0.174,-0.712 0.176,-0.712 0.179,-0.713L0.209,-0.713C0.209,-0.712 0.21,-0.712 0.21,-0.712L0.213,-0.712C0.216,-0.711 0.219,-0.711 0.222,-0.71C0.224,-0.709 0.227,-0.708 0.23,-0.707C0.231,-0.707 0.232,-0.707 0.234,-0.706L0.235,-0.706C0.239,-0.704 0.243,-0.701 0.247,-0.698C0.247,-0.698 0.251,-0.695 0.252,-0.694C0.254,-0.692 0.256,-0.69 0.257,-0.688C0.258,-0.688 0.259,-0.687 0.259,-0.686C0.26,-0.685 0.261,-0.683 0.262,-0.682C0.264,-0.679 0.265,-0.676 0.267,-0.673C0.269,-0.67 0.27,-0.667 0.272,-0.664C0.273,-0.662 0.273,-0.66 0.274,-0.659C0.274,-0.658 0.275,-0.656 0.276,-0.655L0.282,-0.637C0.283,-0.634 0.284,-0.63 0.284,-0.627C0.284,-0.626 0.285,-0.625 0.285,-0.624C0.284,-0.627 0.285,-0.621 0.285,-0.619C0.287,-0.603 0.288,-0.587 0.29,-0.571C0.296,-0.507 0.301,-0.442 0.299,-0.378Z" style="fill:white;fill-rule:nonzero;"/>
        </g>
    </g>
</svg>
